icons/Sequelize-Dark.svg

<svg width="256" height="256" viewBox="0 0 256 256" fill="none" xmlns="http://www.w3.org/2000/svg">
<rect width="256" height="256" rx="60" fill="#242938"/>
<path d="M191.959 91.9785V163.985L128.093 199.834L127.506 200.346V227.488L128.093 228L218.013 178.273V78H217.155L191.802 91.5759V92.1373" fill="#2F406A"/>
<path d="M63.616 164.406L128.139 200.047V228L37 178V78H37.9175L63.3506 92.1032L63.6193 92.9247V164.719" fill="#2379BD"/>
<path d="M63.7847 92.557L37 77.8367L127.751 28L218.013 77.631L191.923 91.5854L127.637 56.6747L63.6769 92.4544" fill="#03AFEF"/>
<path d="M126.944 155.848L126.241 155.19V128.473L126.944 128.117V127.46L151.43 114.076H152.19V141.655L126.782 155.75" fill="#2F406A"/>
<path d="M101.139 143.086V114.076H101.846L126.873 127.835V156.481L100.924 143.083" fill="#2379BD"/>
<path d="M126.66 99.6754L101.557 114.232L127.087 128.633L152.19 114.287L126.656 99.519" fill="#03AFEF"/>
<path d="M95.8968 174.203L95.2278 173.536V146.394L95.8968 146.034V145.367L119.189 131.798H119.911V159.76L95.743 174.049" fill="#2F406A"/>
<path d="M69.9114 160.804V131.798H70.6234L95.8608 145.557V174.203L69.9146 160.804" fill="#2379BD"/>
<path d="M95.0677 117.292L69.9114 131.798L95.443 146.355L120.544 132.008L95.0127 117.241" fill="#03AFEF"/>
<path d="M159.855 174.836L159.152 174.179V147.442L159.855 147.088V146.43L184.342 133.063H185.101V160.608L159.693 174.684" fill="#2F406A"/>
<path d="M134.578 161.431V132.431H135.393L160.418 146.19V174.836L134.468 161.431" fill="#2379BD"/>
<path d="M159.889 117.874L135.101 132.114L160.314 146.355L185.101 132.32L159.889 117.874Z" fill="#03AFEF"/>
<path d="M128.842 192.557L128.139 191.89V164.746L128.842 164.386V163.719L153.329 150.152H154.089V178.109L128.68 192.397" fill="#2F406A"/>
<path d="M102.823 179.108V150.152H103.535L128.772 163.911V192.557L102.826 179.105" fill="#2379BD"/>
<path d="M128.268 135.602L102.823 149.94L128.7 164.076L154.089 149.94L128.265 135.595" fill="#03AFEF"/>
<path d="M126.944 117.874L126.241 117.205V90.101L126.944 89.7396V89.0713L151.43 75.4688H152.19V103.499L126.944 117.874Z" fill="#2F406A"/>
<path d="M101.139 104.546V75.4688H101.846L126.873 89.2612V117.874L100.924 104.442" fill="#2379BD"/>
<path d="M126.658 61.5444L101.557 75.7849L127.089 90.0254L152.19 75.9913L126.658 61.5444Z" fill="#03AFEF"/>
<path d="M95.8968 135.595L95.2278 134.921V107.301L95.8968 106.937V106.263L119.189 92.5571H119.911V120.801L95.743 135.234" fill="#2F406A"/>
<path d="M69.9114 122.199V93.1899H70.6234L95.8608 106.949V135.595L69.9146 122.196" fill="#2379BD"/>
<path d="M95.0677 78.6328L69.9114 92.7967L95.443 107.114L120.544 93.1056L95.0127 78.686" fill="#03AFEF"/>
<path d="M159.855 136.861L159.152 136.183V108.654L159.855 108.287V107.609L184.342 93.8228H185.101V122.234L159.693 136.752" fill="#2F406A"/>
<path d="M135.101 123.402V93.8228H135.884L159.785 107.753V136.861L135.101 123.402Z" fill="#2379BD"/>
<path d="M159.889 79.2724L135.101 93.5066L160.314 107.747L185.101 93.713L159.889 79.2661" fill="#03AFEF"/>
<path d="M128.842 153.946L128.139 153.267V125.78L128.842 125.413V124.733L153.329 110.912H154.089V139.394L128.842 153.95" fill="#2F406A"/>
<path d="M102.823 140.451V110.912H103.535L128.772 124.926V153.95L102.823 140.451Z" fill="#2379BD"/>
<path d="M128.294 96.9873L102.823 111.202L128.673 125.468L154.089 111.409L128.297 96.9936" fill="#03AFEF"/>
</svg>

<svg xmlns="http://www.w3.org/2000/svg" width="256" height="256" fill="none" viewBox="0 0 256 256"><rect width="256" height="256" fill="#242938" rx="60"/><path fill="#2F406A" d="M191.96 91.98v72l-63.87 35.85-.58.52v27.14l.58.51 89.92-49.73V78h-.85L191.8 91.58v.56"/><path fill="#2379BD" d="m63.62 164.4 64.52 35.65V228L37 178V78h.92l25.43 14.1.27.82v71.8"/><path fill="#03AFEF" d="M63.78 92.56 37 77.84 127.75 28l90.26 49.63-26.09 13.96-64.28-34.92-63.96 35.78"/><path fill="#2F406A" d="m126.94 155.85-.7-.66v-26.72l.7-.35v-.66l24.49-13.38h.76v27.58l-25.4 14.09"/><path fill="#2379BD" d="M101.14 143.09v-29.01h.7l25.03 13.75v28.65l-25.95-13.4"/><path fill="#03AFEF" d="m126.66 99.68-25.1 14.55 25.53 14.4 25.1-14.34-25.53-14.77"/><path fill="#2F406A" d="m95.9 174.2-.67-.66v-27.15l.67-.36v-.66l23.29-13.57h.72v27.96l-24.17 14.29"/><path fill="#2379BD" d="M69.91 160.8v-29h.71l25.24 13.76v28.64z"/><path fill="#03AFEF" d="M95.07 117.3 69.9 131.8l25.53 14.55 25.1-14.34L95 117.24"/><path fill="#2F406A" d="m159.85 174.84-.7-.66v-26.74l.7-.35v-.66l24.5-13.37h.75v27.55l-25.4 14.07"/><path fill="#2379BD" d="M134.58 161.43v-29h.81l25.03 13.76v28.65l-25.95-13.4"/><path fill="#03AFEF" d="m159.89 117.87-24.79 14.24 25.21 14.24 24.8-14.03z"/><path fill="#2F406A" d="m128.84 192.56-.7-.67v-27.14l.7-.36v-.67l24.49-13.57h.76v27.96l-25.41 14.29"/><path fill="#2379BD" d="M102.82 179.1v-28.95h.72l25.23 13.76v28.65z"/><path fill="#03AFEF" d="m128.27 135.6-25.45 14.34 25.88 14.14 25.39-14.14z"/><path fill="#2F406A" d="m126.94 117.87-.7-.67V90.1l.7-.36v-.67l24.49-13.6h.76v28.03z"/><path fill="#2379BD" d="M101.14 104.55V75.47h.7l25.03 13.8v28.6l-25.95-13.43"/><path fill="#03AFEF" d="m126.66 61.54-25.1 14.24 25.53 14.25 25.1-14.04z"/><path fill="#2F406A" d="m95.9 135.6-.67-.68V107.3l.67-.36v-.68l23.29-13.7h.72v28.24l-24.17 14.43"/><path fill="#2379BD" d="M69.91 122.2V93.19h.71l25.24 13.76v28.64z"/><path fill="#03AFEF" d="M95.07 78.63 69.9 92.8l25.53 14.31 25.1-14L95 78.69"/><path fill="#2F406A" d="m159.85 136.86-.7-.68v-27.53l.7-.36v-.68l24.5-13.79h.75v28.41l-25.4 14.52"/><path fill="#2379BD" d="M135.1 123.4V93.82h.78l23.9 13.93v29.11z"/><path fill="#03AFEF" d="M159.89 79.27 135.1 93.51l25.21 14.24 24.8-14.04z"/><path fill="#2F406A" d="m128.84 153.95-.7-.68v-27.49l.7-.37v-.68l24.49-13.82h.76v28.48z"/><path fill="#2379BD" d="M102.82 140.45v-29.54h.72l25.23 14.02v29.02z"/><path fill="#03AFEF" d="m128.3 96.99-25.48 14.21 25.85 14.27 25.42-14.06z"/></svg>
